src/extras-openmoji/healthcare/E324.svg

<svg id="emoji" viewBox="0 0 72 72" xmlns="http://www.w3.org/2000/svg">
  <g id="grid">
    <path fill="#b3b3b3" d="M68,4V68H4V4H68m4-4H0V72H72V0Z"/>
    <path fill="none" stroke="#00a5ff" stroke-miterlimit="10" stroke-width="0.1" d="M12.923,10.9583H59.0769A1.9231,1.9231,0,0,1,61,12.8814V59.0352a1.9231,1.9231,0,0,1-1.9231,1.9231H12.9231A1.9231,1.9231,0,0,1,11,59.0352V12.8813A1.923,1.923,0,0,1,12.923,10.9583Z"/>
    <rect x="16" y="4" rx="2.2537" width="40" height="64" fill="none" stroke="#00a5ff" stroke-miterlimit="10" stroke-width="0.1"/>
    <rect x="16" y="4" rx="2.2537" width="40" height="64" transform="translate(72) rotate(90)" fill="none" stroke="#00a5ff" stroke-miterlimit="10" stroke-width="0.1"/>
    <circle cx="36" cy="36" r="29" fill="none" stroke="#00a5ff" stroke-miterlimit="10" stroke-width="0.1"/>
  </g>
  <g id="color">
    <path fill="#92d3f5" d="M48.8521,24.6873h0a4.7576,4.7576,0,0,0-6.7234-.2545L26.1505,39.2452c-1.336,1.2384-1.5632,4.9386-1.7681,5.1272l-3.1005,2.8552a2.3555,2.3555,0,0,0-.1371,3.3284l.1148.1246a2.3555,2.3555,0,0,0,3.3283.1371l3.1005-2.8552c.2642-.2432,3.7053-.6033,4.9309-1.7394L48.5976,31.4105A4.7574,4.7574,0,0,0,48.8521,24.6873Z"/>
  </g>
  <g id="line">
    <path fill="none" stroke="#000" stroke-linecap="round" stroke-linejoin="round" stroke-width="2" d="M48.8521,24.6873h0a4.7576,4.7576,0,0,0-6.7234-.2545L26.1505,39.2452c-1.336,1.2384-1.5632,4.9386-1.7681,5.1272l-3.1005,2.8552a2.3555,2.3555,0,0,0-.1371,3.3284l.1148.1246a2.3555,2.3555,0,0,0,3.3283.1371l3.1005-2.8552c.2642-.2432,3.7053-.6033,4.9309-1.7394L48.5976,31.4105A4.7574,4.7574,0,0,0,48.8521,24.6873Z"/>
    <line x1="23.4629" x2="46.253" y1="48.5753" y2="27.4172" fill="none" stroke="#000" stroke-linecap="round" stroke-linejoin="round" stroke-width="2"/>
    <rect x="27.9053" y="37.732" rx="0.5234" width="2.8932" height="1.5706" transform="translate(35.8328 -9.4735) rotate(45)"/>
    <rect x="31.0862" y="34.3308" rx="0.5234" width="2.1258" height="1.5706" transform="translate(34.2471 -12.4476) rotate(45)"/>
    <rect x="33.6025" y="32.2029" rx="0.5234" width="3.3898" height="1.5706" transform="translate(33.6646 -15.297) rotate(45)"/>
    <rect x="36.8144" y="29.0347" rx="0.5234" width="2.7857" height="1.5706" transform="translate(32.2766 -18.2825) rotate(45)"/>
    <rect x="39.7268" y="26.2489" rx="0.5234" width="2.7857" height="1.5706" transform="translate(31.1598 -21.1579) rotate(45)"/>
  </g>
</svg>

<svg viewBox="0 0 72 72" xmlns="http://www.w3.org/2000/svg"><path fill="#b3b3b3" d="M68 4v64H4V4h64m4-4H0v72h72V0z"/><path fill="none" stroke="#00a5ff" stroke-miterlimit="10" stroke-width=".1" d="M12.923 10.958h46.154A1.923 1.923 0 0161 12.881v46.154a1.923 1.923 0 01-1.923 1.923H12.923A1.923 1.923 0 0111 59.035V12.881a1.923 1.923 0 011.923-1.923z"/><rect x="16" y="4" rx="2.254" width="40" height="64" fill="none" stroke="#00a5ff" stroke-miterlimit="10" stroke-width=".1"/><rect x="16" y="4" rx="2.254" width="40" height="64" transform="rotate(90 36 36)" fill="none" stroke="#00a5ff" stroke-miterlimit="10" stroke-width=".1"/><circle cx="36" cy="36" r="29" fill="none" stroke="#00a5ff" stroke-miterlimit="10" stroke-width=".1"/><g stroke-linecap="round" stroke-miterlimit="10" stroke-width="6" stroke="#fff" fill="none" stroke-linejoin="round"><path d="M48.852 24.687h0a4.758 4.758 0 00-6.723-.254L26.15 39.245c-1.336 1.239-1.564 4.939-1.769 5.127l-3.1 2.856a2.356 2.356 0 00-.137 3.328l.115.125a2.356 2.356 0 003.328.137l3.1-2.856c.265-.243 3.706-.603 4.931-1.739l15.98-14.813a4.757 4.757 0 00.254-6.723zM23.463 48.575l22.79-21.158"/><rect x="27.905" y="37.732" rx=".523" width="2.893" height="1.571" transform="rotate(45 29.352 38.517)"/><rect x="31.086" y="34.331" rx=".523" width="2.126" height="1.571" transform="rotate(45 32.15 35.116)"/><rect x="33.602" y="32.203" rx=".523" width="3.39" height="1.571" transform="rotate(45 35.297 32.988)"/><rect x="36.814" y="29.035" rx=".523" width="2.786" height="1.571" transform="rotate(45 38.207 29.82)"/><rect x="39.727" y="26.249" rx=".523" width="2.786" height="1.571" transform="rotate(45 41.12 27.034)"/></g><path fill="#92d3f5" d="M48.852 24.687a4.758 4.758 0 00-6.723-.254L26.15 39.245c-1.336 1.239-1.564 4.939-1.769 5.127l-3.1 2.856a2.356 2.356 0 00-.137 3.328l.115.125a2.356 2.356 0 003.328.137l3.1-2.856c.265-.243 3.706-.603 4.931-1.739l15.98-14.813a4.757 4.757 0 00.254-6.723z"/><path fill="none" stroke="#000" stroke-linecap="round" stroke-linejoin="round" stroke-width="2" d="M48.852 24.687h0a4.758 4.758 0 00-6.723-.254L26.15 39.245c-1.336 1.239-1.564 4.939-1.769 5.127l-3.1 2.856a2.356 2.356 0 00-.137 3.328l.115.125a2.356 2.356 0 003.328.137l3.1-2.856c.265-.243 3.706-.603 4.931-1.739l15.98-14.813a4.757 4.757 0 00.254-6.723zM23.463 48.575l22.79-21.158"/><rect x="27.905" y="37.732" rx=".523" width="2.893" height="1.571" transform="rotate(45 29.352 38.517)"/><rect x="31.086" y="34.331" rx=".523" width="2.126" height="1.571" transform="rotate(45 32.15 35.116)"/><rect x="33.602" y="32.203" rx=".523" width="3.39" height="1.571" transform="rotate(45 35.297 32.988)"/><rect x="36.814" y="29.035" rx=".523" width="2.786" height="1.571" transform="rotate(45 38.207 29.82)"/><rect x="39.727" y="26.249" rx=".523" width="2.786" height="1.571" transform="rotate(45 41.12 27.034)"/></svg>
